rospo-icon-theme-classic-common/22x22/apps/tresorit.svg

<svg height="22" width="22" xmlns="http://www.w3.org/2000/svg"><path d="m11.053853 1.0011744a2.282762 2.2739121 0 0 0 -1.1954798.303345l-6.7168881 3.8629356a2.282762 2.2739121 0 0 0 -1.141481 1.9694672v7.7263708a2.282762 2.2739121 0 0 0 1.141381 1.969267l6.7168881 3.863136a2.282762 2.2739121 0 0 0 2.2827618 0l6.716888-3.863136a2.282762 2.2739121 0 0 0 1.141481-1.969466v-7.7263718a2.282762 2.2739121 0 0 0 -1.141481-1.9694672l-6.716888-3.8629356a2.282762 2.2739121 0 0 0 -1.087482-.3033449z" fill="#4f4f4f"/><path d="m10.772319 1.0132195a2.282762 2.2739121 0 0 0 -.03614.00488 2.282762 2.2739121 0 0 1  .0459-.00488 2.282762 2.2739121 0 0 0 -.0098 0zm-.208005.030273a2.282762 2.2739121 0 0 0 -.08105.018554 2.282762 2.2739121 0 0 1  .08105-.018554zm-.218746.05371a2.282762 2.2739121 0 0 0 -.07422.024414 2.282762 2.2739121 0 0 1  .07422-.024414zm-.221676.078124a2.282762 2.2739121 0 0 0 -.08398.038085 2.282762 2.2739121 0 0 1  .08398-.038085zm-.1982388.092772a2.282762 2.2739121 0 0 0 -.06738.036132 2.282762 2.2739121 0 0 1  .06738-.036132zm-6.7840665 3.8993485a2.282762 2.2739121 0 0 0 -.5331942.424798 2.282762 2.2739121 0 0 1  .5331942-.424798zm-.5331942.424798a2.282762 2.2739121 0 0 0 -.6015525 1.3984142 2.282762 2.2739121 0 0 1  .6015525-1.3984142zm-.6015525 1.3984142a2.282762 2.2739121 0 0 0 -.00684.146482v7.7264338a2.282762 2.2739121 0 0 0 1.1415826 1.968717l6.7166856 3.863217a2.282762 2.2739121 0 0 0 1.1415818.30273v-7.999867a2.282762 2.2739121 0 0 1 -1.1415778-.302729l-6.7166855-3.863218a2.282762 2.2739121 0 0 1 -1.1347467-1.8417658z" fill="#fff" opacity=".1"/><path d="m11.053353 1.0015244a2.282762 2.2739121 0 0 0 -1.1949798.302695l-6.7168881 3.8632356a2.282762 2.2739121 0 0 0 -1.141481 1.9694672v.4999917a2.282762 2.2739121 0 0 1 1.141581-1.9694672l6.7168881-3.8632356a2.282762 2.2739121 0 0 1 1.1952798-.30273 2.282762 2.2739121 0 0 1 1.087882.30273l6.716888 3.8632356a2.282762 2.2739121 0 0 1 1.141481 1.9694672v-.4999917a2.282762 2.2739121 0 0 0 -1.141481-1.9694672l-6.716888-3.8632356a2.282762 2.2739121 0 0 0 -1.087982-.302695z" fill="#fff" opacity=".1"/><path d="m2.0000041 14.863293v.499992a2.282762 2.2739121 0 0 0 1.141581 1.968718l6.7168881 3.863236a2.282762 2.2739121 0 0 0 2.2831618 0l6.716888-3.863436a2.282762 2.2739121 0 0 0 1.141481-1.968967v-.499992a2.282762 2.2739121 0 0 1 -1.141581 1.968717l-6.716888 3.863236a2.282762 2.2739121 0 0 1 -2.2831618 0l-6.7168881-3.863436a2.282762 2.2739121 0 0 1 -1.141481-1.968967z" opacity=".2"/><path d="m11.053564 1.0005245v.0009749a2.282762 2.2739121 0 0 0 -1.1952918.3027309l-6.7166855 3.8632167a2.282762 2.2739121 0 0 0 -1.1347467 1.8232122 2.282762 2.2739121 0 0 0 1.1347467 1.8417658l6.7166855 3.863218a2.282762 2.2739121 0 0 0 2.2831638 0l6.716686-3.863218a2.282762 2.2739121 0 0 0 1.134746-1.8241881 2.282762 2.2739121 0 0 0 -1.134746-1.8407899l-6.716686-3.8632167a2.282762 2.2739121 0 0 0 -1.087872-.3037058z" fill="#fff" opacity=".2"/><path d="m14.051561 2.902813-12.0515569 6.9578915v5.5028375a2.282762 2.2739121 0 0 0  .016601.260738l17.0299899-9.8318669a2.282762 2.2739121 0 0 0 -.188473-.1249979z" opacity=".2"/><path d="m14.051561 2.4028448-12.0515569 6.9578917v5.5028385a2.282762 2.2739121 0 0 0  .016601.260738l17.0299899-9.831868a2.282762 2.2739121 0 0 0 -.188473-.124998z" fill="#00cbec"/><path d="m3.0351431 8.7630906-1.035139.5976459v5.5028385a2.282762 2.2739121 0 0 0  .015625.252925 2.282762 2.2739121 0 0 0  .000975.0078l6.020409-3.475515-4.8954264-2.81636a2.282762 2.2739121 0 0 1 -.1064436-.0693344z" fill="#00a7c2"/></svg>

<svg xmlns="http://www.w3.org/2000/svg" width="22" height="22" version="1">
 <path style="fill:#4f4f4f" d="M 11.053853,1.0011744 A 2.282762,2.2739121 0 0 0 9.8583732,1.3045194 L 3.1414851,5.167455 a 2.282762,2.2739121 0 0 0 -1.141481,1.9694672 l 0,7.7263708 a 2.282762,2.2739121 0 0 0 1.141381,1.969267 l 6.7168881,3.863136 a 2.282762,2.2739121 0 0 0 2.2827618,0 l 6.716888,-3.863136 a 2.282762,2.2739121 0 0 0 1.141481,-1.969466 l 0,-7.7263718 A 2.282762,2.2739121 0 0 0 18.857923,5.167255 L 12.141035,1.3043194 A 2.282762,2.2739121 0 0 0 11.053553,1.0009745 Z"/>
 <path style="opacity:0.1;fill:#ffffff" d="m 10.772319,1.0132195 a 2.282762,2.2739121 0 0 0 -0.03614,0.00488 2.282762,2.2739121 0 0 1 0.0459,-0.00488 2.282762,2.2739121 0 0 0 -0.0098,0 z m -0.208005,0.030273 a 2.282762,2.2739121 0 0 0 -0.08105,0.018554 2.282762,2.2739121 0 0 1 0.08105,-0.018554 z m -0.218746,0.05371 a 2.282762,2.2739121 0 0 0 -0.07422,0.024414 2.282762,2.2739121 0 0 1 0.07422,-0.024414 z m -0.221676,0.078124 a 2.282762,2.2739121 0 0 0 -0.08398,0.038085 2.282762,2.2739121 0 0 1 0.08398,-0.038085 z m -0.1982388,0.092772 a 2.282762,2.2739121 0 0 0 -0.06738,0.036132 2.282762,2.2739121 0 0 1 0.06738,-0.036132 z M 3.1415867,5.167447 A 2.282762,2.2739121 0 0 0 2.6083925,5.592245 2.282762,2.2739121 0 0 1 3.1415867,5.167447 Z M 2.6083925,5.592245 A 2.282762,2.2739121 0 0 0 2.00684,6.9906592 2.282762,2.2739121 0 0 1 2.6083925,5.592245 Z M 2.00684,6.9906592 A 2.282762,2.2739121 0 0 0 2,7.1371412 l 0,7.7264338 a 2.282762,2.2739121 0 0 0 1.1415826,1.968717 l 6.7166856,3.863217 a 2.282762,2.2739121 0 0 0 1.1415818,0.30273 l 0,-7.999867 A 2.282762,2.2739121 0 0 1 9.8582722,12.695643 L 3.1415867,8.832425 A 2.282762,2.2739121 0 0 1 2.00684,6.9906592 Z"/>
 <path style="opacity:0.1;fill:#ffffff" d="M 11.053353,1.0015244 A 2.282762,2.2739121 0 0 0 9.8583732,1.3042194 L 3.1414851,5.167455 a 2.282762,2.2739121 0 0 0 -1.141481,1.9694672 l 0,0.4999917 A 2.282762,2.2739121 0 0 1 3.1415851,5.6674467 L 9.8584732,1.8042111 a 2.282762,2.2739121 0 0 1 1.1952798,-0.30273 2.282762,2.2739121 0 0 1 1.087882,0.30273 l 6.716888,3.8632356 a 2.282762,2.2739121 0 0 1 1.141481,1.9694672 l 0,-0.4999917 A 2.282762,2.2739121 0 0 0 18.858523,5.167455 L 12.141635,1.3042194 a 2.282762,2.2739121 0 0 0 -1.087982,-0.302695 z"/>
 <path style="opacity:0.2" d="m 2.0000041,14.863293 0,0.499992 a 2.282762,2.2739121 0 0 0 1.141581,1.968718 l 6.7168881,3.863236 a 2.282762,2.2739121 0 0 0 2.2831618,0 l 6.716888,-3.863436 a 2.282762,2.2739121 0 0 0 1.141481,-1.968967 l 0,-0.499992 a 2.282762,2.2739121 0 0 1 -1.141581,1.968717 l -6.716888,3.863236 a 2.282762,2.2739121 0 0 1 -2.2831618,0 L 3.1414851,16.831361 a 2.282762,2.2739121 0 0 1 -1.141481,-1.968967 z"/>
 <path style="opacity:0.2;fill:#ffffff" d="m 11.053564,1.0005245 0,9.749e-4 A 2.282762,2.2739121 0 0 0 9.8582722,1.3042303 L 3.1415867,5.167447 A 2.282762,2.2739121 0 0 0 2.00684,6.9906592 2.282762,2.2739121 0 0 0 3.1415867,8.832425 l 6.7166855,3.863218 a 2.282762,2.2739121 0 0 0 2.2831638,0 L 18.858122,8.832425 A 2.282762,2.2739121 0 0 0 19.992868,7.0082369 2.282762,2.2739121 0 0 0 18.858122,5.167447 L 12.141436,1.3042303 A 2.282762,2.2739121 0 0 0 11.053564,1.0005245 Z"/>
 <path style="opacity:0.2" d="m 14.051561,2.902813 -12.0515569,6.9578915 0,5.5028375 a 2.282762,2.2739121 0 0 0 0.016601,0.260738 L 19.046595,5.7924131 A 2.282762,2.2739121 0 0 0 18.858122,5.6674152 L 14.051561,2.902813 Z"/>
 <path style="fill:#00cbec" d="m 14.051561,2.4028448 -12.0515569,6.9578917 0,5.5028385 a 2.282762,2.2739121 0 0 0 0.016601,0.260738 L 19.046595,5.292445 A 2.282762,2.2739121 0 0 0 18.858122,5.167447 L 14.051561,2.4028448 Z"/>
 <path style="fill:#00a7c2" d="m 3.0351431,8.7630906 -1.035139,0.5976459 0,5.5028385 a 2.282762,2.2739121 0 0 0 0.015625,0.252925 2.282762,2.2739121 0 0 0 9.75e-4,0.0078 L 8.0370131,11.648785 3.1415867,8.832425 A 2.282762,2.2739121 0 0 1 3.0351431,8.7630906 Z"/>
</svg>
